dist/svg/u1F4BF.svg

<?xml version="1.0" encoding="UTF-8"?><svg id="a" xmlns="http://www.w3.org/2000/svg" viewBox="0 0 40 40"><rect width="40" height="40" fill="none"/><g><g><path d="M21.612,17.209l7.14-12.362C20.38,.015,9.675,2.883,4.841,11.251l12.366,7.137c.89-1.542,2.862-2.07,4.404-1.18Z" fill="#90bdf8"/><path d="M18.388,22.791l-7.14,12.362c8.372,4.832,19.077,1.964,23.91-6.404l-12.366-7.137c-.89,1.542-2.862,2.07-4.404,1.18Z" fill="#90bdf8"/></g><g><path d="M17.208,18.389L4.841,11.251c-3.25,5.627-3.004,12.302,.041,17.545l12.342-7.182c-.561-.966-.616-2.189-.017-3.226Z" fill="#90bdf8"/><path d="M11.248,35.153l7.14-12.362c-.505-.292-.889-.706-1.163-1.177l-12.342,7.182c1.484,2.554,3.623,4.774,6.365,6.357Z" fill="#c8e1ff"/><path d="M35.117,11.204l-12.342,7.182c.561,.965,.616,2.189,.017,3.226l12.366,7.137c3.25-5.627,3.004-12.302-.042-17.545Z" fill="#90bdf8"/><path d="M28.752,4.847l-7.14,12.362c.505,.292,.889,.706,1.163,1.177l12.342-7.182c-1.484-2.554-3.623-4.774-6.365-6.357Z" fill="#c8e1ff"/></g><path d="M22.684,15.488c-2.512-1.45-5.724-.588-7.173,1.921-1.449,2.509-.59,5.721,1.922,7.17,2.511,1.449,5.724,.588,7.173-1.921s.589-5.721-1.922-7.17Zm-3.676,6.364c-1.004-.579-1.349-1.863-.769-2.868s1.865-1.348,2.869-.768c1.004,.58,1.349,1.863,.769,2.868s-1.865,1.348-2.869,.768Z" fill="#495b73"/></g></svg>

<svg id="Layer_1" data-name="Layer 1" xmlns="http://www.w3.org/2000/svg" viewBox="0 0 40 40"><defs><style>.cls-1{fill:none;}.cls-2{fill:#90bdf8;}.cls-3{fill:#c8e1ff;}.cls-4{fill:#495b73;}</style></defs><rect class="cls-1" width="40" height="40"/><path class="cls-2" d="M21.612,17.209l7.14-12.362a17.508,17.508,0,0,0-23.911,6.4l12.367,7.138A3.224,3.224,0,0,1,21.612,17.209Z"/><path class="cls-2" d="M18.388,22.791l-7.14,12.362a17.508,17.508,0,0,0,23.911-6.4L22.792,21.611A3.224,3.224,0,0,1,18.388,22.791Z"/><path class="cls-2" d="M17.208,18.389,4.841,11.251A17.475,17.475,0,0,0,4.883,28.8l12.342-7.182A3.2,3.2,0,0,1,17.208,18.389Z"/><path class="cls-3" d="M11.248,35.153l7.14-12.362a3.184,3.184,0,0,1-1.163-1.177L4.883,28.8A17.4,17.4,0,0,0,11.248,35.153Z"/><path class="cls-2" d="M35.117,11.2,22.775,18.386a3.2,3.2,0,0,1,.017,3.225l12.367,7.138A17.475,17.475,0,0,0,35.117,11.2Z"/><path class="cls-3" d="M28.752,4.847l-7.14,12.362a3.184,3.184,0,0,1,1.163,1.177L35.117,11.2A17.4,17.4,0,0,0,28.752,4.847Z"/><path class="cls-4" d="M22.684,15.488a5.25,5.25,0,1,0,1.922,7.171A5.254,5.254,0,0,0,22.684,15.488Zm-3.675,6.364a2.1,2.1,0,1,1,2.869-.768A2.1,2.1,0,0,1,19.009,21.852Z"/></svg>
